X: 28344
T: Muiñeira Das Zocas
R: jig
M: 6/8
K: Dmajor
FED|:A3 FED|A3 FED|EFG GFE|FED FED|
A3 FED|A3 FED|EFG GFE|1 D3 FED:|2 D3 F2G||
|:ABc dcB|AF/G/A dcB|AEF GAB|B2A F2G|
ABc dcB|AF/G/A dcB|AEF GFE|1 D3 F2G:|2 D3||

